img/logos-img-03.svg

<svg width="149" height="109" viewBox="0 0 149 109" fill="none" xmlns="http://www.w3.org/2000/svg">
<path d="M149 0.211914C130.189 12.8305 128.187 21.9884 126.557 24.7899C124.997 27.662 123.833 38.9858 121.132 44.4711C118.408 50.027 108.514 54.4059 105.743 56.2421C103.02 58.0784 99.1548 65.2117 95.9886 71.3562C70.8216 70.3203 57.0158 80.4905 35.6436 93.3916C42.4883 91.108 45.7244 89.4601 45.7244 89.4601C67.6553 80.9849 78.1552 73.3808 111.168 77.8773C111.424 77.8773 111.61 78.0186 111.82 78.0657C112.728 78.5836 113.054 79.6901 112.542 80.6082L99.993 103.162C99.4109 104.268 98.177 104.857 96.9431 104.598C67.4225 98.9946 44.118 108.67 22.6992 108.976C5.61078 109.235 0 101.09 0 100.713C0 100.454 0.139688 100.313 0.395781 100.313C0.395781 100.313 9.3125 100.313 24.3988 96.711C41.5337 63.6815 56.8062 52.1223 73.4291 52.1223C73.4291 52.1223 90.1217 52.1223 94.5219 66.6948C99.83 57.3486 101.11 55.1121 101.11 55.1121C102.344 52.8992 109.259 36.9376 121.225 21.8236C133.215 6.75662 142.272 3.01343 149 0.211914Z" fill="#737373"/>
</svg>

<svg width="149" height="109" fill="none" xmlns="http://www.w3.org/2000/svg"><path d="M149 .212c-18.811 12.619-20.813 21.776-22.443 24.578-1.56 2.872-2.724 14.196-5.425 19.681-2.724 5.556-12.618 9.935-15.389 11.771-2.723 1.836-6.588 8.97-9.754 15.114-25.167-1.036-38.973 9.135-60.345 22.036 6.844-2.284 10.08-3.932 10.08-3.932 21.931-8.475 32.431-16.08 65.444-11.583.256 0 .442.142.652.189.908.518 1.234 1.624.722 2.542l-12.549 22.554a2.788 2.788 0 0 1-3.05 1.436c-29.52-5.603-52.825 4.072-74.244 4.378C5.611 109.235 0 101.09 0 100.713c0-.259.14-.4.396-.4 0 0 8.917 0 24.003-3.602 17.135-33.03 32.407-44.589 49.03-44.589 0 0 16.693 0 21.093 14.573 5.308-9.346 6.588-11.583 6.588-11.583 1.234-2.213 8.149-18.174 20.115-33.288C133.215 6.757 142.272 3.014 149 .212Z" fill="#737373"/></svg>
